svgs/regular/folder-medical.svg

<svg xmlns="http://www.w3.org/2000/svg" viewBox="0 0 512 512"><!-- Font Awesome Pro 6.0.0-alpha2 by @fontawesome - https://fontawesome.com License - https://fontawesome.com/license (Commercial License) --><path d="M448 96H275.883L226.746 50.746C214.742 38.742 198.465 32 181.49 32H64C28.654 32 0 60.656 0 96V416C0 451.344 28.654 480 64 480H448C483.346 480 512 451.344 512 416V160C512 124.656 483.346 96 448 96ZM464 416C464 424.824 456.822 432 448 432H64C55.178 432 48 424.824 48 416V96C48 87.176 55.178 80 64 80H181.49C185.764 80 189.783 81.664 192.805 84.688L256 144H448C456.822 144 464 151.176 464 160V416ZM336 256H288V208C288 199.199 280.801 192 272 192H240C231.199 192 224 199.199 224 208V256H176C167.199 256 160 263.195 160 271.996V304C160 312.797 167.199 319.996 176 319.996H224V367.996C224 376.797 231.199 384 240 384H272C280.801 384 288 376.797 288 367.996V319.996H336C344.801 319.996 352 312.797 352 304V271.996C352 263.195 344.801 256 336 256Z"/></svg>

<svg xmlns="http://www.w3.org/2000/svg" viewBox="0 0 512 512"><!--! Font Awesome Pro 6.4.0 by @fontawesome - https://fontawesome.com License - https://fontawesome.com/license (Commercial License) Copyright 2023 Fonticons, Inc. --><path d="M251.7 127.6l0 0c10.5 10.5 24.7 16.4 39.6 16.4H448c8.8 0 16 7.2 16 16V416c0 8.8-7.2 16-16 16H64c-8.8 0-16-7.2-16-16V96c0-8.8 7.2-16 16-16H197.5c4.2 0 8.3 1.7 11.3 4.7l33.9-33.9L208.8 84.7l42.9 42.9zm33.9-33.9L242.7 50.7c-12-12-28.3-18.7-45.3-18.7H64C28.7 32 0 60.7 0 96V416c0 35.3 28.7 64 64 64H448c35.3 0 64-28.7 64-64V160c0-35.3-28.7-64-64-64H291.3c-2.1 0-4.2-.8-5.7-2.3zM224 256H176c-8.8 0-16 7.2-16 16v32c0 8.8 7.2 16 16 16h48v48c0 8.8 7.2 16 16 16h32c8.8 0 16-7.2 16-16V320h48c8.8 0 16-7.2 16-16V272c0-8.8-7.2-16-16-16H288V208c0-8.8-7.2-16-16-16H240c-8.8 0-16 7.2-16 16v48z"/></svg>
